src/assets/multiwave.svg

<svg width="1920" height="1080" viewBox="0 0 1920 1080" xmlns="http://www.w3.org/2000/svg"><path d="M 0,1080 C 0,1080 0,154 0,154 C 99.0460235640648,158.12555228276878 198.0920471281296,162.25110456553756 282,173 C 365.9079528718704,183.74889543446244 434.67783505154637,201.12113402061857 498,186 C 561.3221649484536,170.87886597938143 619.1966126656848,123.26435935198825 692,129 C 764.8033873343152,134.73564064801175 852.5357142857142,193.82142857142858 950,186 C 1047.4642857142858,178.17857142857142 1154.6605301914583,103.4499263622975 1225,98 C 1295.3394698085417,92.5500736377025 1328.8221649484533,156.37886597938143 1406,182 C 1483.1778350515467,207.62113402061857 1604.0508100147276,195.03460972017672 1697,184 C 1789.9491899852724,172.96539027982328 1854.9745949926362,163.48269513991164 1920,154 C 1920,154 1920,1080 1920,1080 Z" fill="#7d7463" opacity="0.08571428571428572"/><path d="M 0,1080 C 0,1080 0,308 0,308 C 68.02945508100149,331.89083210603826 136.05891016200297,355.7816642120766 216,356 C 295.941089837997,356.2183357879234 387.7938144329896,332.764175257732 476,311 C 564.2061855670104,289.235824742268 648.7658321060384,269.16163475699557 729,275 C 809.2341678939616,280.83836524300443 885.1428571428571,312.5892857142857 956,313 C 1026.857142857143,313.4107142857143 1092.662739322533,282.48122238586154 1163,280 C 1233.337260677467,277.51877761413846 1308.2061855670104,303.48582474226805 1399,299 C 1489.7938144329896,294.51417525773195 1596.5125184094256,259.57547864506626 1686,256 C 1775.4874815905744,252.42452135493372 1847.743740795287,280.2122606774669 1920,308 C 1920,308 1920,1080 1920,1080 Z" fill="#7d7463" opacity="0.17142857142857143"/><path d="M 0,1080 C 0,1080 0,462 0,462 C 67.11763622974962,477.92912371134025 134.23527245949924,493.85824742268045 223,492 C 311.76472754050076,490.14175257731955 422.1765463917526,470.4961340206185 506,446 C 589.8234536082474,421.5038659793815 647.0585419734904,392.1572164948454 714,409 C 780.9414580265096,425.8427835051546 857.5892857142857,488.875 937,505 C 1016.4107142857143,521.125 1098.5843151693668,490.34278350515467 1194,473 C 1289.4156848306332,455.65721649484533 1398.0734536082473,451.75386597938143 1481,459 C 1563.9265463917527,466.24613402061857 1621.1218703976435,484.6417525773196 1690,487 C 1758.8781296023565,489.3582474226804 1839.4390648011781,475.6791237113402 1920,462 C 1920,462 1920,1080 1920,1080 Z" fill="#7d7463" opacity="0.2571428571428571"/><path d="M 0,1080 C 0,1080 0,617 0,617 C 99.9075846833579,640.2765095729014 199.8151693667158,663.5530191458028 283,657 C 366.1848306332842,650.4469808541972 432.6469072164948,614.0644329896907 501,610 C 569.3530927835052,605.9355670103093 639.5972017673049,634.1892488954344 711,626 C 782.4027982326951,617.8107511045656 854.9642857142858,573.1785714285716 940,580 C 1025.0357142857142,586.8214285714284 1122.545655375552,645.0964653902797 1217,665 C 1311.454344624448,684.9035346097203 1402.8530927835052,666.4355670103093 1476,658 C 1549.1469072164948,649.5644329896907 1604.0419734904272,651.1612665684831 1675,646 C 1745.9580265095728,640.8387334315169 1832.9790132547864,628.9193667157584 1920,617 C 1920,617 1920,1080 1920,1080 Z" fill="#7d7463" opacity="0.34285714285714286"/><path d="M 0,1080 C 0,1080 0,771 0,771 C 66.10843151693666,778.2757731958764 132.21686303387332,785.5515463917526 211,793 C 289.7831369661267,800.4484536082474 381.24097938144337,808.0695876288661 475,811 C 568.7590206185566,813.9304123711339 664.8192194403534,812.1701030927834 739,793 C 813.1807805596466,773.8298969072166 865.4821428571431,737.25 938,746 C 1010.5178571428569,754.75 1103.252209131075,808.8298969072165 1180,828 C 1256.747790868925,847.1701030927835 1317.5090206185566,831.430412371134 1399,826 C 1480.4909793814434,820.569587628866 1582.7117083946982,825.4484536082475 1673,818 C 1763.2882916053018,810.5515463917525 1841.6441458026509,790.7757731958762 1920,771 C 1920,771 1920,1080 1920,1080 Z" fill="#7d7463" opacity="0.4285714285714286"/><path d="M 0,1080 C 0,1080 0,925 0,925 C 60.01914580265097,939.9293078055964 120.03829160530194,954.8586156111929 204,940 C 287.96170839469806,925.1413843888071 395.86597938144325,880.4948453608247 473,876 C 550.1340206185567,871.5051546391753 596.497790868925,907.1620029455081 683,913 C 769.502209131075,918.8379970544919 896.1428571428571,894.8571428571428 983,880 C 1069.857142857143,865.1428571428572 1116.9307805596468,859.4094256259206 1181,878 C 1245.0692194403532,896.5905743740794 1326.1340206185564,939.5051546391752 1423,941 C 1519.8659793814436,942.4948453608248 1632.5331369661267,902.5699558173785 1718,893 C 1803.4668630338733,883.4300441826215 1861.7334315169367,904.2150220913107 1920,925 C 1920,925 1920,1080 1920,1080 Z" fill="#7d7463" opacity="0.5142857142857142"/><path d="M 0,1080 C 0,1080 0,1079 0,1079 C 75.01988217967599,1079.1809646539027 150.03976435935198,1079.3619293078057 219,1090 C 287.960235640648,1100.6380706921943 350.86082474226805,1121.7332474226805 448,1125 C 545.139175257732,1128.2667525773195 676.5169366715759,1113.7050810014728 762,1104 C 847.4830633284241,1094.2949189985272 887.0714285714286,1089.4464285714287 949,1104 C 1010.9285714285714,1118.5535714285713 1095.19734904271,1152.5092047128128 1168,1131 C 1240.80265095729,1109.4907952871872 1302.1391752577317,1032.5167525773195 1398,1027 C 1493.8608247422683,1021.4832474226804 1624.2459499263625,1087.4237849779088 1717,1108 C 1809.7540500736375,1128.5762150220912 1864.8770250368188,1103.7881075110456 1920,1079 C 1920,1079 1920,1080 1920,1080 Z" fill="#7d7463" opacity="0.6"/></svg>

<svg width="1920" height="1080" xmlns="http://www.w3.org/2000/svg"><path d="M0 1080V154c99.046 4.126 198.092 8.251 282 19 83.908 10.749 152.678 28.121 216 13 63.322-15.121 121.197-62.736 194-57 72.803 5.736 160.536 64.821 258 57 97.464-7.821 204.66-82.55 275-88 70.34-5.45 103.822 58.379 181 84 77.178 25.621 198.05 13.035 291 2 92.95-11.035 157.975-20.517 223-30v926Z" fill="#7d7463" opacity=".086"/><path d="M0 1080V308c68.03 23.89 136.059 47.782 216 48 79.941.218 171.794-23.236 260-45 88.206-21.764 172.766-41.838 253-36 80.234 5.838 156.143 37.59 227 38 70.857.41 136.663-30.519 207-33 70.337-2.481 145.206 23.486 236 19 90.794-4.486 197.513-39.425 287-43 89.487-3.575 161.744 24.212 234 52v772Z" fill="#7d7463" opacity=".171"/><path d="M0 1080V462c67.118 15.93 134.235 31.858 223 30 88.765-1.858 199.177-21.504 283-46 83.823-24.496 141.059-53.843 208-37 66.941 16.843 143.59 79.875 223 96s161.584-14.657 257-32 204.073-21.246 287-14c82.927 7.246 140.122 25.642 209 28 68.878 2.358 149.44-11.32 230-25v618Z" fill="#7d7463" opacity=".257"/><path d="M0 1080V617c99.908 23.277 199.815 46.553 283 40 83.185-6.553 149.647-42.936 218-47 68.353-4.064 138.597 24.19 210 16 71.403-8.19 143.964-52.821 229-46 85.036 6.821 182.546 65.096 277 85 94.454 19.904 185.853 1.436 259-7 73.147-8.436 128.042-6.839 199-12s157.979-17.08 245-29v463Z" fill="#7d7463" opacity=".343"/><path d="M0 1080V771c66.108 7.276 132.217 14.552 211 22 78.783 7.448 170.241 15.07 264 18 93.759 2.93 189.82 1.17 264-18s126.482-55.75 199-47 165.252 62.83 242 82c76.748 19.17 137.509 3.43 219-2 81.491-5.43 183.712-.552 274-8 90.288-7.448 168.644-27.224 247-47v309Z" fill="#7d7463" opacity=".429"/><path d="M0 1080V925c60.02 14.93 120.038 29.859 204 15 83.962-14.859 191.866-59.505 269-64 77.134-4.495 123.498 31.162 210 37 86.502 5.838 213.143-18.143 300-33s133.93-20.59 198-2 145.134 61.505 242 63c96.866 1.495 209.533-38.43 295-48 85.467-9.57 143.733 11.215 202 32v155Z" fill="#7d7463" opacity=".514"/><path d="M0 1080v-1c75.02.181 150.04.362 219 11 68.96 10.638 131.86 31.733 229 35 97.14 3.267 228.517-11.295 314-21s125.071-14.554 187 0 146.197 48.51 219 27c72.803-21.51 134.14-98.483 230-104 95.86-5.517 226.246 60.424 319 81 92.754 20.576 147.877-4.212 203-29v1Z" fill="#7d7463" opacity=".6"/></svg>
